X:42
M:3/4
L:1/4
Q:3/4=45
K:G
L:1/8
dBGBAG | DFAFED | CEGEDC | B,BdBcd |
bgdbag | fdfagf | ecegfe | dcdefg |
bagafg | agfgeg | fe^def^d | efgfed |
cdedcd | BcdcBd | cdcBAG | FDEFGB |
ecefga | fdefgB | AGD2f2 | g2G4 |]

